X: 39226
T: Ta Skelp Auld Hornie Awa'
R: polka
M: 2/4
K: Dmajor
M:4/4
|:(3GFE|D2- D>E F2 G2|A2 d2 f2 d2|c2 e2 g2 c2|d>cd>e (3fgf d2|
D2 D>E F2- F>G|A2 d2 f4|c2 e2 g>fe>c|(3ded f2 d2:|
(3EFG|:(3ABA F>A d2 F2|A2 G2 G>FG>^G|A2 ^G>A =g2 c2|(3efe d2 d>cd>B|
[1 A2 (3FGA d2- d>F|A2 G2 G4|A2 ^G>A a>=gf>c|(3efe d2 d>cB>^A:|
[2 A2 F>A d2- d>F|(3ABA G2 G>FG>^G|A>^GA>e a>=gf>e|d2 (3ABA D2||

